Numix/64/emotes/face-sleeping.svg

<?xml version="1.0" encoding="UTF-8" standalone="no"?>
<svg
   xmlns:dc="http://purl.org/dc/elements/1.1/"
   xmlns:cc="http://creativecommons.org/ns#"
   xmlns:rdf="http://www.w3.org/1999/02/22-rdf-syntax-ns#"
   xmlns:svg="http://www.w3.org/2000/svg"
   xmlns="http://www.w3.org/2000/svg"
   xmlns:xlink="http://www.w3.org/1999/xlink"
   xmlns:sodipodi="http://sodipodi.sourceforge.net/DTD/sodipodi-0.dtd"
   xmlns:inkscape="http://www.inkscape.org/namespaces/inkscape"
   width="64px"
   height="64px"
   viewBox="0 0 48 48"
   version="1.1"
   id="svg244"
   inkscape:version="0.91 r"
   sodipodi:docname="face-sleeping.svg">
  <metadata
     id="metadata279">
    <rdf:RDF>
      <cc:Work
         rdf:about="">
        <dc:format>image/svg+xml</dc:format>
        <dc:type
           rdf:resource="http://purl.org/dc/dcmitype/StillImage" />
      </cc:Work>
    </rdf:RDF>
  </metadata>
  <sodipodi:namedview
     pagecolor="#ffffff"
     bordercolor="#666666"
     borderopacity="1"
     objecttolerance="10"
     gridtolerance="10"
     guidetolerance="10"
     inkscape:pageopacity="0"
     inkscape:pageshadow="2"
     inkscape:window-width="640"
     inkscape:window-height="480"
     id="namedview277" />
  <defs
     id="defs246">
    <g
       id="g248">
      <symbol
         overflow="visible"
         id="glyph0-0">
        <path
           style="stroke:none;"
           d="M 0.5 0 L 0.5 -7.5 L 4.5 -7.5 L 4.5 0 Z M 4 -0.5 L 4 -7 L 1 -7 L 1 -0.5 Z M 4 -0.5 "
           id="path251" />
      </symbol>
      <symbol
         overflow="visible"
         id="glyph0-1">
        <path
           style="stroke:none;"
           d="M 4.453125 -5.328125 C 4.160156 -4.890625 3.894531 -4.476562 3.65625 -4.09375 C 3.414062 -3.707031 3.191406 -3.335938 2.984375 -2.984375 C 2.785156 -2.628906 2.59375 -2.289062 2.40625 -1.96875 C 2.21875 -1.644531 2.039062 -1.328125 1.875 -1.015625 L 4.546875 -1.015625 L 4.546875 0 L 0.453125 0 L 0.453125 -0.703125 C 0.609375 -0.992188 0.769531 -1.296875 0.9375 -1.609375 C 1.101562 -1.929688 1.285156 -2.269531 1.484375 -2.625 C 1.691406 -2.988281 1.914062 -3.378906 2.15625 -3.796875 C 2.40625 -4.222656 2.675781 -4.679688 2.96875 -5.171875 L 0.59375 -5.171875 L 0.59375 -6.1875 L 4.453125 -6.1875 Z M 4.453125 -5.328125 "
           id="path254" />
      </symbol>
      <symbol
         overflow="visible"
         id="glyph1-0">
        <path
           style="stroke:none;"
           d="M 0.65625 0 L 0.65625 -9.75 L 5.84375 -9.75 L 5.84375 0 Z M 5.203125 -0.65625 L 5.203125 -9.09375 L 1.296875 -9.09375 L 1.296875 -0.65625 Z M 5.203125 -0.65625 "
           id="path257" />
      </symbol>
      <symbol
         overflow="visible"
         id="glyph1-1">
        <path
           style="stroke:none;"
           d="M 5.78125 -6.921875 C 5.40625 -6.359375 5.0625 -5.820312 4.75 -5.3125 C 4.445312 -4.8125 4.160156 -4.332031 3.890625 -3.875 C 3.617188 -3.425781 3.363281 -2.988281 3.125 -2.5625 C 2.882812 -2.144531 2.65625 -1.734375 2.4375 -1.328125 L 5.90625 -1.328125 L 5.90625 0 L 0.59375 0 L 0.59375 -0.921875 C 0.789062 -1.296875 0.992188 -1.6875 1.203125 -2.09375 C 1.421875 -2.507812 1.664062 -2.953125 1.9375 -3.421875 C 2.207031 -3.890625 2.5 -4.394531 2.8125 -4.9375 C 3.125 -5.488281 3.472656 -6.082031 3.859375 -6.71875 L 0.765625 -6.71875 L 0.765625 -8.046875 L 5.78125 -8.046875 Z M 5.78125 -6.921875 "
           id="path260" />
      </symbol>
    </g>
  </defs>
  <g
     id="surface1">
    <path
       style=" stroke:none;fill-rule:nonzero;fill:rgb(100%,85.490196%,36.862745%);fill-opacity:1;"
       d="M 42 24 C 42 32.5625 33.941406 39.5 24 39.5 C 14.058594 39.5 6 32.5625 6 24 C 6 15.441406 14.058594 8.5 24 8.5 C 33.941406 8.5 42 15.441406 42 24 Z M 42 24 "
       id="path263" />
    <path
       style=" stroke:none;fill-rule:nonzero;fill:rgb(39.607843%,39.607843%,39.607843%);fill-opacity:1;"
       d="M 18 29.253906 C 16.621094 29.253906 15.5 28.132812 15.5 26.753906 C 15.5 26.5 15.539062 26.25 15.617188 26.007812 C 15.945312 27.046875 16.910156 27.753906 18 27.753906 C 19.09375 27.753906 20.058594 27.042969 20.382812 26 C 20.460938 26.242188 20.5 26.5 20.5 26.753906 C 20.5 28.132812 19.378906 29.253906 18 29.253906 Z M 18 29.253906 "
       id="path265" />
    <path
       style=" stroke:none;fill-rule:nonzero;fill:rgb(39.607843%,39.607843%,39.607843%);fill-opacity:1;"
       d="M 30 29.253906 C 28.621094 29.253906 27.5 28.132812 27.5 26.753906 C 27.5 26.5 27.539062 26.25 27.617188 26.007812 C 27.945312 27.046875 28.910156 27.753906 30 27.753906 C 31.09375 27.753906 32.058594 27.042969 32.382812 26 C 32.460938 26.242188 32.5 26.5 32.5 26.753906 C 32.5 28.132812 31.378906 29.253906 30 29.253906 Z M 30 29.253906 "
       id="path267" />
    <g
       style="fill:rgb(21.176471%,21.176471%,21.176471%);fill-opacity:1;"
       id="g269">
      <use
         xlink:href="#glyph0-1"
         x="25.414062"
         y="21.400391"
         id="use271" />
    </g>
    <g
       style="fill:rgb(21.176471%,21.176471%,21.176471%);fill-opacity:1;"
       id="g273">
      <use
         xlink:href="#glyph1-1"
         x="31.265625"
         y="20.726562"
         id="use275" />
    </g>
  </g>
</svg>

<svg xmlns="http://www.w3.org/2000/svg" width="64" height="64" viewBox="0 0 48 48">
 <g>
  <path d="m 42 24 c 0 8.563 -8.06 15.5 -18 15.5 c -9.941 0 -18 -6.938 -18 -15.5 c 0 -8.559 8.06 -15.5 18 -15.5 c 9.941 0 18 6.941 18 15.5 m 0 0" style="fill:#ffd95d;fill-opacity:1;stroke:none;fill-rule:nonzero"/>
  <path d="m 18 29.25 c -1.379 0 -2.5 -1.121 -2.5 -2.5 c 0 -0.254 0.039 -0.504 0.117 -0.746 c 0.328 1.039 1.293 1.746 2.383 1.746 c 1.094 0 2.059 -0.711 2.383 -1.754 c 0.078 0.242 0.117 0.5 0.117 0.754 c 0 1.379 -1.121 2.5 -2.5 2.5 m 0 0" style="fill:#646464;fill-opacity:1;stroke:none;fill-rule:nonzero"/>
  <path d="m 30 29.25 c -1.379 0 -2.5 -1.121 -2.5 -2.5 c 0 -0.254 0.039 -0.504 0.117 -0.746 c 0.328 1.039 1.293 1.746 2.383 1.746 c 1.094 0 2.059 -0.711 2.383 -1.754 c 0.078 0.242 0.117 0.5 0.117 0.754 c 0 1.379 -1.121 2.5 -2.5 2.5 m 0 0" style="fill:#646464;fill-opacity:1;stroke:none;fill-rule:nonzero"/>
 </g>
</svg>
